X: 35949
T: Sarah Dancing
R: reel
M: 4/4
K: Dmajor
|:d'2 c'd' afga|d'2 c'd' b3 c'|d'2 c'd' afga|=c'bag fedb-|
b2 ab gddB|dedB dfac'|d'2 c'd' abag|1 fedc dd'd'c':|2 fedc d2 ed||
K:Gmaj
|:Bded gded|cded gded|a2fb a2fa|c'bag fedc|
Bded gded|cded gded|a2fb a2fa|1 d'afd gedc:|2 d'afd g z3||

